src/assets/duotone/ArrowUp3.svg

<svg width="24" height="24" viewBox="0 0 24 24"  xmlns="http://www.w3.org/2000/svg">
<path d="M9.33017 18H14.6702C17.9902 18 19.3402 15.65 17.6902 12.78L16.9502 11.5C16.7702 11.19 16.4402 11 16.0802 11H7.92017C7.56017 11 7.23017 11.19 7.05017 11.5L6.31017 12.78C4.66017 15.65 6.01017 18 9.33017 18Z" />
<path opacity="0.4" d="M8.79006 10.0001H15.2201C15.6101 10.0001 15.8501 9.58006 15.6501 9.25006L15.0101 8.15006C13.3601 5.28006 10.6401 5.28006 8.99006 8.15006L8.35006 9.25006C8.16006 9.58006 8.40006 10.0001 8.79006 10.0001Z" />
</svg>

<?xml version="1.0" encoding="UTF-8"?>
<svg width="24" height="24" viewBox="0 0 24 24" xmlns="http://www.w3.org/2000/svg">
 <path d="m9.3302 18h5.34c3.32 0 4.67-2.35 3.02-5.22l-0.74-1.28c-0.18-0.31-0.51-0.5-0.87-0.5h-8.16c-0.36 0-0.69 0.19-0.87 0.5l-0.74 1.28c-1.65 2.87-0.3 5.22 3.02 5.22z"/>
 <path d="m8.7901 10h6.43c0.39 0 0.63-0.42004 0.43-0.75004l-0.64-1.1c-1.65-2.87-4.37-2.87-6.02 0l-0.64 1.1c-0.19 0.33 0.05 0.75004 0.44 0.75004z" opacity=".4"/>
</svg>
